X: 2642
T:Princess Esterhazy. HSJJ.089
M:6/8
L:1/8
Q:110
S:HSJ Jackson,Wyresdale,Lancs.1823
R:Quadrille
O:England
A:Lancashire
H:1823
Z:Chris Partington.
K:C
G|e3dcd|c3cde|(gfd) (fec)|e3-d2G|e3dcd|!c3cde|def BgB|c3c2|
|G|d3dcd|e3cde|!(gfd) fec|e3d2G|e3dcd|c3cde|def B-gB|c3-c2|]
